X:449
T:King George V's Army 
C:Joe Buchanan's Scottish Tome - Page 051.1
I:051 1
C:P.M. G.S. McLennan
R:Pipe March
Z:Carl Allison
M:2/4
K:Amix
(ed) | "A" c2A2 A3B | "A" cAce fedc | "Bm" d2B2 B3c | "E7" defa f2(ed) |
"A" c2A2 A3B | "A" cAce fedc | "D" d2fd "A" c2(ec) | "E7" B4 "A" A2 :|
(cd) | "A" e2a2 a2(gf) | "A" e2c2 c2(ec) | "E7" d2B2 B2(cd) | "A" c2A2 A2(cd) |
"A" e2a2 a2(gf) | "A" e2c2 c2(ec) | "D" d2(fd) "A" c2(ec) | "E7" B4 "A" A2 :|
(ed) | "A" c2e2 a3e | "A" ceae faec | "D" d2f2 a3f | dfad fafd |
"A" c2e2 a3e | "A" ceae faec | "D" dfad "A" ceac | "E7" B4 "A" A2 :|
(ed) | "A" c2e2 e3d | "A" ceea fedc | "D" d2f2 f3e | "D" dffa gfed |
"A" c2e2 e3d | "A" ceea fedc | "D" dfad "A" ceac | "E7" B4A2 :|

